newicons/emoji_battery.svg

<?xml version="1.0" encoding="UTF-8" standalone="no"?>
<svg
   version="1.2"
   viewBox="0 0 48 48"
   id="svg2"
   xmlns="http://www.w3.org/2000/svg"
   xmlns:svg="http://www.w3.org/2000/svg">
  <defs
     id="defs1" />
  <path
     d="m 39.349958,20.73509 v -4.369692 c 0,-0.337112 -0.274,-0.610378 -0.612016,-0.610378 H 6.1120154 C 5.7739993,15.75502 5.5,16.028286 5.5,16.365398 v 15.269205 c 0,0.337112 0.2739993,0.610378 0.6120154,0.610378 H 38.74039 c 0.338016,0 0.612015,-0.273266 0.612015,-0.610378 V 27.560944 H 42.5 V 20.73509 h -3.150042 v 0"
     fill="none"
     stroke="#ffffff"
     stroke-linecap="round"
     stroke-linejoin="round"
     stroke-width="0.916794"
     id="path1"
     style="stroke-width:1;stroke-dasharray:none" />
  <path
     d="M 8.6996163,18.300905 H 29.65441 V 29.902352 H 8.6996163 V 18.300905"
     fill="none"
     stroke="#ffffff"
     stroke-linecap="round"
     stroke-linejoin="round"
     stroke-width="0.916794"
     id="path2"
     style="stroke-width:1;stroke-dasharray:none" />
</svg>

<?xml version="1.0" encoding="UTF-8"?><svg id="b" xmlns="http://www.w3.org/2000/svg" viewBox="0 0 48 48"><defs><style>.e{fill:none;stroke:#fff;stroke-linecap:round;stroke-linejoin:round;}</style></defs><path id="c" class="e" d="m39.35,20.7351v-4.3697c0-.3371-.274-.6104-.612-.6104H6.112c-.338,0-.612.2733-.612.6104v15.2692c0,.3371.274.6104.612.6104h32.6284c.338,0,.612-.2733.612-.6104v-4.0737h3.1476v-6.8259h-3.15"/><path id="d" class="e" d="m8.6996,18.3009h20.9548v11.6014H8.6996v-11.6014"/></svg>
